scalable/apps/gnome-mplayer.svg

<?xml version="1.0" encoding="UTF-8" standalone="no"?>
<!-- Generator: Adobe Illustrator 19.0.0, SVG Export Plug-In . SVG Version: 6.00 Build 0)  -->

<svg
   xmlns:dc="http://purl.org/dc/elements/1.1/"
   xmlns:cc="http://creativecommons.org/ns#"
   xmlns:rdf="http://www.w3.org/1999/02/22-rdf-syntax-ns#"
   xmlns:svg="http://www.w3.org/2000/svg"
   xmlns="http://www.w3.org/2000/svg"
   xmlns:xlink="http://www.w3.org/1999/xlink"
   xmlns:sodipodi="http://sodipodi.sourceforge.net/DTD/sodipodi-0.dtd"
   xmlns:inkscape="http://www.inkscape.org/namespaces/inkscape"
   version="1.1"
   id="Capa_1"
   x="0px"
   y="0px"
   viewBox="0 0 48 48"
   xml:space="preserve"
   sodipodi:docname="gnome-mplayer.svg"
   width="48"
   height="48"
   inkscape:version="0.92.3 (2405546, 2018-03-11)"><metadata
   id="metadata41"><rdf:RDF><cc:Work
       rdf:about=""><dc:format>image/svg+xml</dc:format><dc:type
         rdf:resource="http://purl.org/dc/dcmitype/StillImage" /><dc:title /></cc:Work></rdf:RDF></metadata><defs
   id="defs39"><linearGradient
     inkscape:collect="always"
     id="linearGradient923"><stop
       style="stop-color:#000000;stop-opacity:1;"
       offset="0"
       id="stop919" /><stop
       style="stop-color:#000000;stop-opacity:0;"
       offset="1"
       id="stop921" /></linearGradient><linearGradient
     x1="-83.756935"
     y1="-7.8379993"
     x2="-92.222527"
     y2="27.521217"
     id="linearGradient5588"
     xlink:href="#linearGradient3202"
     gradientUnits="userSpaceOnUse"
     gradientTransform="matrix(0.5857566,-0.140767,0.1402401,0.5879573,74.307775,0.1578927)" /><linearGradient
     id="linearGradient3202"><stop
       id="stop3204"
       style="stop-color:white;stop-opacity:1"
       offset="0" /><stop
       id="stop3206"
       style="stop-color:#d3eefc;stop-opacity:1"
       offset="1" /></linearGradient><linearGradient
     id="linearGradient3259"><stop
       style="stop-color:#729fcf;stop-opacity:1;"
       offset="0"
       id="stop3261" /><stop
       style="stop-color:#3f7ab9;stop-opacity:1;"
       offset="1"
       id="stop3263" /></linearGradient><linearGradient
     id="linearGradient3276"><stop
       style="stop-color:#fcaf3e;stop-opacity:1;"
       offset="0"
       id="stop3278" /><stop
       style="stop-color:#f99603;stop-opacity:1;"
       offset="1"
       id="stop3280" /></linearGradient><linearGradient
     id="linearGradient7037"><stop
       id="stop7039"
       offset="0"
       style="stop-color:#000000;stop-opacity:0.35294119" /><stop
       id="stop7041"
       offset="1"
       style="stop-color:#ffffff;stop-opacity:1" /></linearGradient><linearGradient
     id="linearGradient5578"><stop
       style="stop-color:#a7cc5c;stop-opacity:1;"
       offset="0"
       id="stop5580" /><stop
       style="stop-color:#789e2d;stop-opacity:1;"
       offset="1"
       id="stop5582" /></linearGradient><linearGradient
     id="linearGradient3171"><stop
       style="stop-color:#ffffff;stop-opacity:1;"
       offset="0"
       id="stop3173" /><stop
       style="stop-color:#ffffff;stop-opacity:0;"
       offset="1"
       id="stop3175" /></linearGradient><linearGradient
     inkscape:collect="always"
     xlink:href="#linearGradient923"
     id="linearGradient925"
     x1="10.529631"
     y1="8.4991398"
     x2="50.075783"
     y2="47.897465"
     gradientUnits="userSpaceOnUse" /></defs><sodipodi:namedview
   pagecolor="#ffffff"
   bordercolor="#666666"
   borderopacity="1"
   objecttolerance="10"
   gridtolerance="10"
   guidetolerance="10"
   inkscape:pageopacity="0"
   inkscape:pageshadow="2"
   inkscape:window-width="1366"
   inkscape:window-height="719"
   id="namedview37"
   showgrid="false"
   showguides="true"
   inkscape:guide-bbox="true"
   inkscape:zoom="1.8782524"
   inkscape:cx="24"
   inkscape:cy="24"
   inkscape:window-x="0"
   inkscape:window-y="25"
   inkscape:window-maximized="1"
   inkscape:current-layer="Capa_1" />


<g
   id="g6"
   transform="translate(0,-464)">
</g>
<g
   id="g8"
   transform="translate(0,-464)">
</g>
<g
   id="g10"
   transform="translate(0,-464)">
</g>
<g
   id="g12"
   transform="translate(0,-464)">
</g>
<g
   id="g14"
   transform="translate(0,-464)">
</g>
<g
   id="g16"
   transform="translate(0,-464)">
</g>
<g
   id="g18"
   transform="translate(0,-464)">
</g>
<g
   id="g20"
   transform="translate(0,-464)">
</g>
<g
   id="g22"
   transform="translate(0,-464)">
</g>
<g
   id="g24"
   transform="translate(0,-464)">
</g>
<g
   id="g26"
   transform="translate(0,-464)">
</g>
<g
   id="g28"
   transform="translate(0,-464)">
</g>
<g
   id="g30"
   transform="translate(0,-464)">
</g>
<g
   id="g32"
   transform="translate(0,-464)">
</g>
<g
   id="g34"
   transform="translate(0,-464)">
</g>
<g
   id="g990"><path
     id="path867"
     d="m 24.000976,0.3457035 c -5.833461,0 -10.522198,1.1203776 -13.935546,3.3320313 -4.1011933,2.6574037 -6.2695315,6.9015122 -6.2695315,12.2714832 0,7.226706 5.8062658,16.88549 7.5859375,19.673828 2.031747,3.183082 4.250107,6.079783 6.246093,8.15625 2.542362,2.644284 4.56815,3.875 6.373047,3.875 1.804991,0 3.829009,-1.230625 6.371093,-3.875 1.995894,-2.076376 4.214349,-4.973077 6.246094,-8.15625 C 38.397835,32.8348 44.204101,23.175924 44.204101,15.949219 44.204193,10.57934 42.037899,6.3352307 37.936523,3.6777348 34.523359,1.4660811 29.834346,0.3457035 24.000976,0.3457035 Z"
     style="fill:#008080;stroke-width:0.0924025" /><path
     inkscape:connector-curvature="0"
     id="path899"
     d="m 31.373047,42.470703 c 1.726803,-1.95271 3.538349,-4.175161 5.244141,-6.847656 0.889835,-1.394123 2.786912,-4.505287 4.460932,-8.171875 0.08155,-0.178604 0.13255,-0.381398 0.2129,-0.5625 L 33.652344,19.25 28.140625,20.046875 16.652344,27.75 Z"
     style="fill:url(#linearGradient925);fill-opacity:1;stroke:none;stroke-width:1px;stroke-linecap:butt;stroke-linejoin:miter;stroke-opacity:1;opacity:0.8" /><path
     id="path2"
     d="m 16.65332,10.75 16.999999,8.5 -16.999999,8.5 z"
     style="fill:#f9f9f9;stroke-width:0.0924025" /><path
     inkscape:connector-curvature="0"
     id="path867-7"
     d="m 24,0.34570312 c -5.833461,0 -10.522199,1.12037758 -13.935547,3.33203128 C 5.96326,6.3351381 3.794922,10.579248 3.794922,15.949219 c 0,7.226706 5.806266,16.885489 7.585937,19.673828 2.031747,3.183082 4.250108,6.079783 6.246094,8.15625 2.542362,2.644284 4.568149,3.875 6.373047,3.875 1.804991,0 3.829009,-1.230626 6.371094,-3.875 1.995894,-2.076377 4.214348,-4.973078 6.246094,-8.15625 C 38.396859,32.834801 44.20312,23.175923 44.20312,15.949219 44.20322,10.57934 42.03692,6.3352303 37.935547,3.6777344 34.522382,1.4660807 29.833369,0.34570312 24,0.34570312 Z m 0,0.99999998 c 5.586759,0 10.078784,1.0732517 13.347656,3.1914063 3.927994,2.5451486 6.002044,6.6090896 6.001954,11.7519526 0,6.921191 -5.561191,16.171425 -7.265626,18.841797 -1.945851,3.048601 -4.068952,5.823903 -5.980468,7.8125 C 27.668899,45.47594 25.728684,46.654297 24,46.654297 c -1.728595,0 -3.668634,-1.178443 -6.103516,-3.710938 -1.911604,-1.988683 -4.034615,-4.763985 -5.980468,-7.8125 C 10.21158,32.460398 4.650391,23.210254 4.650391,16.289062 c 0,-5.142951 2.076092,-9.2068923 6.003906,-11.7519526 C 13.923343,2.4189548 18.413152,1.3457031 24,1.3457031 Z"
     style="fill:#000000;stroke-width:0.08849613;opacity:0.2" /><path
     inkscape:connector-curvature="0"
     id="path983"
     d="m 16.652344,24.75 v 3 l 17,-8.5 -3,-1.5 z"
     style="fill:#ffb380;stroke-width:0.0924025;opacity:0.6" /></g></svg>

<svg xmlns="http://www.w3.org/2000/svg" xmlns:xlink="http://www.w3.org/1999/xlink" width="48" height="48"><defs><linearGradient id="b"><stop offset="0"/><stop offset="1" stop-opacity="0"/></linearGradient><linearGradient id="a"><stop offset="0" stop-color="#fff"/><stop offset="1" stop-color="#d3eefc"/></linearGradient><linearGradient xlink:href="#b" id="c" x1="10.53" y1="8.5" x2="50.08" y2="47.9" gradientUnits="userSpaceOnUse"/></defs><path d="M24 .35c-5.83 0-10.52 1.12-13.93 3.33-4.1 2.66-6.27 6.9-6.27 12.27 0 7.23 5.8 16.88 7.58 19.67a54.48 54.48 0 0 0 6.25 8.16c2.54 2.64 4.57 3.87 6.37 3.87 1.8 0 3.83-1.23 6.37-3.87 2-2.08 4.22-4.97 6.25-8.16 1.78-2.79 7.58-12.44 7.58-19.67 0-5.37-2.16-9.61-6.26-12.27C34.52 1.47 29.84.35 24 .35z" fill="teal"/><path d="M31.37 42.47a54.54 54.54 0 0 0 5.25-6.85c.89-1.4 2.78-4.5 4.46-8.17.08-.18.13-.38.21-.56l-7.64-7.64-5.5.8-11.5 7.7z" fill="url(#c)" opacity=".8"/><path d="M16.65 10.75l17 8.5-17 8.5z" fill="#f9f9f9"/><path d="M24 .35c-5.83 0-10.52 1.12-13.94 3.33-4.1 2.66-6.27 6.9-6.27 12.27 0 7.23 5.81 16.88 7.6 19.67a54.48 54.48 0 0 0 6.24 8.16c2.54 2.64 4.57 3.87 6.37 3.87 1.8 0 3.83-1.23 6.37-3.87 2-2.08 4.22-4.97 6.25-8.16 1.78-2.79 7.58-12.44 7.58-19.67 0-5.37-2.16-9.61-6.26-12.27C34.52 1.47 29.84.35 24 .35zm0 1c5.59 0 10.08 1.07 13.35 3.19 3.93 2.54 6 6.6 6 11.75 0 6.92-5.56 16.17-7.27 18.84a52.18 52.18 0 0 1-5.98 7.81c-2.43 2.54-4.37 3.71-6.1 3.71-1.73 0-3.67-1.17-6.1-3.7a52.19 52.19 0 0 1-5.98-7.82c-1.7-2.67-7.27-11.92-7.27-18.84 0-5.14 2.08-9.2 6-11.75 3.27-2.12 7.76-3.2 13.35-3.2z" opacity=".2"/><path d="M16.65 24.75v3l17-8.5-3-1.5z" fill="#ffb380" opacity=".6"/></svg>
